X: 37220
T: Sister Jean
R: barndance
M: 4/4
K: Dmajor
ABde f2 fd|g2 ge f3 g|f2 ef gecd|1 e2 d2 dedB:|
[2 e2 d2 defg|:a2 A2 AFAd|B2 G2 A3 g|f2 ef gecd|

